icons/swim_fill.svg

<svg width="48" height="48" viewBox="0 0 48 48" fill="none" xmlns="http://www.w3.org/2000/svg">
<path d="M28.3495 27.6061C28.4731 27.8577 28.3706 28.1619 28.1198 28.2873L27.4483 28.6231C26.4431 29.1256 25.26 29.1256 24.2549 28.6231L22.9118 27.9515C22.1938 27.5925 21.3487 27.5925 20.6308 27.9515L19.2876 28.6231C18.2825 29.1256 17.0994 29.1256 16.0943 28.6231L13.5391 27.3455L8.61026 28.3309C8.34322 28.3843 8.08135 28.2185 8.0154 27.9543C7.94946 27.69 8.10272 27.4206 8.36353 27.3423L15.3192 25.2528L15.274 25.1986C13.8213 23.4417 13.1907 21.5532 13.0911 19.7508C12.9254 16.752 14.2938 14.1065 14.8321 13.0656L14.8398 13.0508C14.9014 12.9317 14.9484 12.8406 14.9823 12.771C15.7359 11.2213 17.6278 10.5728 19.204 11.294C20.7881 12.0188 21.483 13.8664 20.725 15.4251C20.655 15.5691 20.5824 15.7149 20.5101 15.8602C19.9298 17.0264 19.3688 18.1782 19.4373 19.4176C19.4691 19.9935 19.6519 20.6209 20.2222 21.3106C20.8243 22.0388 21.9667 22.9626 24.1249 23.8752C25.9961 24.6665 27.4944 25.8664 28.3495 27.6061Z" fill="black"/>
<path d="M34.012 16.6099C36.8289 16.6099 39.1124 18.8935 39.1124 21.7103C39.1124 24.5272 36.8289 26.8107 34.012 26.8107C31.1951 26.8107 28.9116 24.5272 28.9116 21.7103C28.9116 18.8935 31.1951 16.6099 34.012 16.6099Z" fill="black"/>
<path fill-rule="evenodd" clip-rule="evenodd" d="M4.22184 37.379C4.57365 36.9462 5.21874 36.8734 5.66269 37.2164L7.28501 38.4698C8.18692 39.1667 9.47586 39.1159 10.3171 38.3503L10.4064 38.2691C12.0381 36.7843 14.5701 36.7843 16.2017 38.2691C17.0452 39.0366 18.3541 39.0366 19.1976 38.2691C20.8293 36.7843 23.3612 36.7843 24.9929 38.2691C25.8287 39.0297 27.1568 39.0262 28.008 38.2516C29.6105 36.7933 32.1282 36.7622 33.7461 38.2345L33.8162 38.2983C34.6201 39.0298 35.874 39.0088 36.6515 38.2506C38.1635 36.7765 40.5845 36.6859 42.208 38.0426L43.6418 39.2408C44.0719 39.6003 44.1217 40.2315 43.7531 40.6509C43.3844 41.0702 42.7369 41.1187 42.3069 40.7593L40.873 39.5611C40.0634 38.8845 38.856 38.9297 38.102 39.6648C36.5428 41.185 34.0286 41.2273 32.4166 39.7604L32.3465 39.6966C31.532 38.9555 30.2374 38.9586 29.4076 39.7137C27.7837 41.1915 25.2325 41.2229 23.5932 39.7311C22.7497 38.9636 21.4408 38.9636 20.5973 39.7311C18.9656 41.2159 16.4337 41.2159 14.802 39.7311C13.9585 38.9636 12.6496 38.9636 11.8061 39.7311L11.7168 39.8124C10.1337 41.253 7.70818 41.3486 6.011 40.0373L4.38867 38.7838C3.94473 38.4408 3.87003 37.8119 4.22184 37.379Z" fill="black"/>
<path fill-rule="evenodd" clip-rule="evenodd" d="M4.22184 31.379C4.57365 30.9462 5.21874 30.8734 5.66269 31.2164L7.28501 32.4698C8.18692 33.1667 9.47586 33.1159 10.3171 32.3503L10.4064 32.2691C12.0381 30.7843 14.5701 30.7843 16.2017 32.2691C17.0452 33.0366 18.3541 33.0366 19.1976 32.2691C20.8293 30.7843 23.3612 30.7843 24.9929 32.2691C25.8287 33.0297 27.1568 33.0262 28.008 32.2516C29.6105 30.7933 32.1282 30.7622 33.7461 32.2345L33.8162 32.2983C34.6201 33.0298 35.874 33.0088 36.6515 32.2506C38.1635 30.7765 40.5845 30.6859 42.208 32.0426L43.6418 33.2408C44.0719 33.6003 44.1217 34.2315 43.7531 34.6509C43.3844 35.0702 42.7369 35.1187 42.3069 34.7593L40.873 33.5611C40.0634 32.8845 38.856 32.9297 38.102 33.6648C36.5428 35.185 34.0286 35.2273 32.4166 33.7604L32.3465 33.6966C31.532 32.9555 30.2374 32.9586 29.4076 33.7137C27.7837 35.1915 25.2325 35.2229 23.5932 33.7311C22.7497 32.9636 21.4408 32.9636 20.5973 33.7311C18.9656 35.2159 16.4337 35.2159 14.802 33.7311C13.9585 32.9636 12.6496 32.9636 11.8061 33.7311L11.7168 33.8124C10.1337 35.253 7.70818 35.3486 6.011 34.0373L4.38867 32.7838C3.94473 32.4408 3.87003 31.8119 4.22184 31.379Z" fill="black"/>
</svg>

<svg
  xmlns="http://www.w3.org/2000/svg"
  width="24"
  height="24"
  viewBox="0 0 24 24"
  fill="none"
  stroke="currentColor"
  stroke-width="2"
  stroke-linecap="round"
  stroke-linejoin="round"
>
  <path d="M28.35 27.606a.51.51 0 0 1-.23.681l-.672.336a3.57 3.57 0 0 1-3.193 0l-1.343-.672a2.55 2.55 0 0 0-2.281 0l-1.343.672a3.57 3.57 0 0 1-3.194 0l-2.555-1.277-4.929.985a.51.51 0 0 1-.246-.989l6.955-2.09-.045-.053c-1.453-1.757-2.083-3.646-2.183-5.448-.166-2.999 1.203-5.645 1.741-6.685l.008-.015c.061-.12.108-.21.142-.28.754-1.55 2.646-2.198 4.222-1.477 1.584.725 2.279 2.572 1.521 4.131q-.106.217-.215.435c-.58 1.166-1.141 2.318-1.073 3.558.032.576.215 1.203.785 1.893.602.728 1.745 1.652 3.903 2.564 1.871.791 3.37 1.991 4.224 3.731" />
  <path d="M34.012 16.61a5.1 5.1 0 1 1 0 10.2 5.1 5.1 0 0 1 0-10.2" />
  <path
    fill-rule="evenodd"
    d="M4.222 37.379a1.044 1.044 0 0 1 1.44-.163l1.623 1.254c.902.697 2.19.646 3.032-.12l.09-.08a4.327 4.327 0 0 1 5.795 0 2.237 2.237 0 0 0 2.996 0 4.327 4.327 0 0 1 5.795 0c.836.76 2.164.756 3.015-.018 1.602-1.459 4.12-1.49 5.738-.018l.07.064c.804.732 2.058.71 2.835-.047 1.512-1.474 3.933-1.565 5.557-.208l1.434 1.198c.43.36.48.99.111 1.41a1.044 1.044 0 0 1-1.446.108l-1.434-1.198a2.08 2.08 0 0 0-2.771.104c-1.56 1.52-4.073 1.562-5.685.095l-.07-.063c-.815-.742-2.11-.738-2.94.017-1.623 1.477-4.174 1.509-5.814.017a2.237 2.237 0 0 0-2.996 0 4.327 4.327 0 0 1-5.795 0 2.237 2.237 0 0 0-2.996 0l-.09.081a4.46 4.46 0 0 1-5.705.225l-1.622-1.253a.983.983 0 0 1-.167-1.405"
    clip-rule="evenodd"
  />
  <path
    fill-rule="evenodd"
    d="M4.222 31.379a1.044 1.044 0 0 1 1.44-.163l1.623 1.254c.902.697 2.19.646 3.032-.12l.09-.08a4.327 4.327 0 0 1 5.795 0 2.237 2.237 0 0 0 2.996 0 4.327 4.327 0 0 1 5.795 0c.836.76 2.164.756 3.015-.018 1.602-1.459 4.12-1.49 5.738-.018l.07.064c.804.732 2.058.71 2.835-.047 1.512-1.474 3.933-1.565 5.557-.208l1.434 1.198c.43.36.48.99.111 1.41a1.044 1.044 0 0 1-1.446.108l-1.434-1.198a2.08 2.08 0 0 0-2.771.104c-1.56 1.52-4.073 1.562-5.685.095l-.07-.063c-.815-.742-2.11-.738-2.94.017-1.623 1.477-4.174 1.509-5.814.017a2.237 2.237 0 0 0-2.996 0 4.327 4.327 0 0 1-5.795 0 2.237 2.237 0 0 0-2.996 0l-.09.081a4.46 4.46 0 0 1-5.705.225l-1.622-1.253a.983.983 0 0 1-.167-1.405"
    clip-rule="evenodd"
  />
</svg>
